dist/images/service/6.svg

<svg width="104" height="64" viewBox="0 0 104 64" fill="none" xmlns="http://www.w3.org/2000/svg">
<path d="M100.36 37.7399C100.116 37.2626 99.6586 36.9256 99.124 36.8285L81.3475 33.5986L65.6177 30.743H65.6169C62.49 30.2482 59.3274 29.9993 56.1603 30H53.5827C46.5395 29.9955 39.553 31.2317 32.9573 33.6518L22.0009 37.6664L21.7758 37.7089L14.8007 39.081C9.20061 40.176 4.13616 43.0788 0.414188 47.3257C-0.0183685 47.8235 -0.121278 48.5202 0.148783 49.1174L1.1733 51.3835C1.59039 52.7062 1.77996 54.0882 1.73507 55.4717C1.72734 55.927 1.90686 56.3664 2.23262 56.6912C2.55839 57.016 3.0041 57.1989 3.46839 57.1989H9.28896C10.2423 59.8657 12.2843 62.0232 14.9253 63.1525C17.5663 64.2825 20.5678 64.2825 23.2096 63.1525C25.8505 62.0233 27.8927 59.8657 28.8459 57.1989H75.1542C76.1075 59.8657 78.1495 62.0232 80.7905 63.1525C83.4315 64.2825 86.433 64.2825 89.0748 63.1525C91.7157 62.0233 93.7579 59.8657 94.7111 57.1989H97.0666C97.4087 57.1981 97.7437 57.0987 98.0285 56.9135L103.228 53.5137C103.71 53.198 104 52.6675 104 52.0991V45.2994C104.003 45.0361 103.943 44.7766 103.827 44.5398L100.36 37.7399ZM11.614 46.7305H8.11801V50.1303H9.37468C8.90884 51.2998 8.66897 52.5436 8.66743 53.7989H5.14354C5.08551 52.5011 4.81546 51.2202 4.34265 50.0066L3.77236 48.7453V48.7445C6.91472 45.4995 11.0028 43.2865 15.4777 42.4094L21.9429 41.1374L24.2673 42.0929V44.9828C22.2648 43.8361 19.9271 43.3853 17.6304 43.7033C15.3345 44.0213 13.2151 45.089 11.6141 46.7344L11.614 46.7305ZM25.8604 55.1588C25.3807 57.459 23.7256 59.354 21.4808 60.1721C19.2368 60.9894 16.7212 60.613 14.8268 59.1772C12.9325 57.7414 11.9281 55.4488 12.1696 53.1121C12.4103 50.7763 13.8635 48.728 16.0122 47.6935C18.1619 46.6584 20.7031 46.7851 22.7351 48.0266C24.7664 49.2689 26.0013 51.4508 26.0005 53.7988C26.0005 54.2557 25.9533 54.711 25.8604 55.1587L25.8604 55.1588ZM56.1608 33.3998C59.1276 33.4005 62.0889 33.6328 65.0177 34.0949L68.831 34.787L56.0463 36.0703L55.6307 33.3998L56.1608 33.3998ZM63.4577 45.7006L69.4655 45.4441L68.3791 47.0424L63.0143 47.2943L63.4577 45.7006ZM34.1637 36.8352C39.9193 34.73 45.9928 33.581 52.1329 33.4353L52.5887 36.4185L28.8017 38.7983L34.1637 36.8352ZM33.0076 46.999L59.8176 45.8568L59.3703 47.4649L32.8516 48.6989L33.0149 52.0987L58.4124 50.9088L57.6084 53.7987H29.4653C29.4669 51.7966 28.8641 49.8387 27.732 48.1722V42.3272L61.7466 38.9153L60.7739 42.4092L32.8566 43.5991L33.0076 46.999ZM91.7244 55.1586H91.7252C91.2455 57.4588 89.5904 59.3538 87.3456 60.1719C85.1016 60.9892 82.586 60.6128 80.6916 59.177C78.7973 57.7412 77.7929 55.4486 78.0344 53.1119C78.2751 50.7761 79.7283 48.7278 81.877 47.6933C84.0267 46.6582 86.5679 46.7849 88.5999 48.0264C90.6312 49.2687 91.8661 51.4506 91.8653 53.7986C91.8653 54.2555 91.8181 54.7108 91.7252 55.1585L91.7244 55.1586ZM90.6048 45.2596H90.6055C88.5048 43.9118 85.9775 43.3555 83.4912 43.694C81.005 44.0317 78.7277 45.2422 77.0811 47.0991C75.4337 48.9569 74.5283 51.3367 74.5323 53.7986H61.2012L62.0524 50.7387L69.4135 50.3987C69.9637 50.3737 70.469 50.0929 70.7746 49.6436L74.2413 44.5438C74.6034 44.0111 74.6297 43.3243 74.3086 42.7658C73.9952 42.2019 73.3785 41.8642 72.7246 41.8991L64.4047 42.2527L65.4447 38.5417L80.9508 36.9859L97.634 40.0155L98.5216 41.7564L90.6048 45.2596ZM100.532 51.1895L96.5452 53.7987H95.3319C95.3311 51.6366 94.6254 49.5306 93.3177 47.7897L100.078 44.8011L100.537 45.7004L100.532 51.1895Z" fill="#0038FF"/>
<path d="M86.8229 20.4252L52.8075 0.167626C52.432 -0.0558753 51.964 -0.0558753 51.5893 0.167626L17.577 20.4252C17.015 20.7596 16.8323 21.4844 17.1683 22.044C17.5043 22.6035 18.2324 22.7861 18.7945 22.4508L52.198 2.5561L85.6047 22.4508C85.7952 22.5649 86.0055 22.6185 86.2134 22.6185C86.6166 22.6185 87.0095 22.4138 87.2316 22.044C87.5676 21.4844 87.385 20.7596 86.8229 20.4252Z" fill="#0038FF"/>
</svg>

<svg width="104" height="64" fill="none" xmlns="http://www.w3.org/2000/svg"><path d="M100.36 37.74a1.733 1.733 0 00-1.236-.912l-17.776-3.23-15.73-2.855h-.001A60.426 60.426 0 0056.16 30h-2.577a59.78 59.78 0 00-20.626 3.652l-10.956 4.014-.225.043L14.8 39.08C9.2 40.176 4.136 43.079.414 47.326a1.674 1.674 0 00-.265 1.791l1.024 2.267a12.27 12.27 0 01.562 4.088c-.008.455.172.894.498 1.22.325.324.771.507 1.235.507H9.29a10.243 10.243 0 005.636 5.954 10.546 10.546 0 008.285 0c2.64-1.13 4.683-3.287 5.636-5.954h46.308a10.243 10.243 0 005.636 5.954 10.546 10.546 0 008.285 0c2.64-1.13 4.683-3.287 5.636-5.954h2.356c.342 0 .677-.1.962-.285l5.199-3.4c.482-.316.772-.847.772-1.415v-6.8a1.682 1.682 0 00-.173-.76l-3.467-6.8zm-88.746 8.99H8.118v3.4h1.257a9.943 9.943 0 00-.708 3.669H5.144a11.911 11.911 0 00-.801-3.792l-.57-1.262a22.245 22.245 0 0111.705-6.336l6.465-1.272 2.324.956v2.89a10.474 10.474 0 00-6.637-1.28 10.379 10.379 0 00-6.016 3.031v-.004zm14.246 8.43c-.48 2.3-2.134 4.195-4.38 5.013a7.045 7.045 0 01-6.653-.995 6.74 6.74 0 01-2.657-6.065c.24-2.336 1.694-4.384 3.842-5.419a7.053 7.053 0 016.723.334C24.766 49.27 26.001 51.452 26 53.8c0 .457-.047.912-.14 1.36zm30.3-21.76c2.968.002 5.929.234 8.858.696l3.813.692-12.785 1.283-.415-2.67h.53zm7.298 12.302l6.008-.257-1.087 1.598-5.365.252.444-1.593zm-29.294-8.866a56.205 56.205 0 0117.969-3.4l.456 2.983-23.787 2.38 5.362-1.963zM33.008 47l26.81-1.142-.448 1.608L32.852 48.7l.163 3.4 25.397-1.19-.804 2.89H29.465a9.994 9.994 0 00-1.733-5.627v-5.845l34.015-3.412-.973 3.494-27.917 1.19.15 3.4zm58.716 8.16h.001c-.48 2.3-2.135 4.195-4.38 5.013a7.045 7.045 0 01-6.653-.995 6.74 6.74 0 01-2.658-6.065c.241-2.336 1.694-4.384 3.843-5.419a7.053 7.053 0 016.723.333c2.031 1.243 3.266 3.425 3.265 5.773 0 .456-.047.912-.14 1.36zm-1.12-9.9h.002a10.55 10.55 0 00-7.115-1.565 10.444 10.444 0 00-6.41 3.405 10.07 10.07 0 00-2.549 6.7h-13.33l.85-3.06 7.361-.34a1.741 1.741 0 001.362-.755l3.466-5.1c.362-.533.389-1.22.068-1.778a1.707 1.707 0 00-1.584-.867l-8.32.354 1.04-3.711 15.506-1.556 16.683 3.03.888 1.74-7.917 3.504zm9.928 5.93l-3.987 2.61h-1.213c0-2.162-.707-4.268-2.014-6.01l6.76-2.988.459.9-.005 5.489zM86.823 20.425L52.808.168a1.19 1.19 0 00-1.219 0L17.577 20.425a1.177 1.177 0 00-.409 1.619c.336.56 1.064.742 1.627.407L52.197 2.556l33.407 19.895a1.185 1.185 0 001.627-.407 1.177 1.177 0 00-.41-1.619z" fill="#0038FF"/></svg>
